public/duplii-face.svg

<?xml version="1.0" encoding="UTF-8" standalone="no"?>
<svg viewBox="0 0 31 31" version="1.1" xmlns="http://www.w3.org/2000/svg" xmlns:xlink="http://www.w3.org/1999/xlink">
    <g id="Page-1" stroke="none" stroke-width="1" fill="none" fill-rule="evenodd">
        <path d="M30.9049283,3.55139934 C30.9049283,5.50651439 29.3022283,7.09664729 27.3285616,7.09664729 C25.351795,7.09664729 23.7511616,5.50651439 23.7511616,3.55139934 C23.7511616,1.5901329 25.351795,0 27.3285616,0 C29.3022283,0 30.9049283,1.5901329 30.9049283,3.55139934 Z M7.15376667,3.55139934 C7.15376667,5.50651439 5.5521,7.09664729 3.5774,7.09664729 C1.60063333,7.09664729 0,5.50651439 0,3.55139934 C0,1.5901329 1.60063333,0 3.5774,0 C5.5521,0 7.15376667,1.5901329 7.15376667,3.55139934 Z M15.5,23.9033527 C10.8965,23.9033527 7.15376667,20.1868912 7.15376667,15.6225639 L0,15.6225639 C0,24.1012222 6.95226667,31 15.5,31 C24.0467,31 31,24.1012222 31,15.6225639 L23.8462333,15.6225639 C23.8462333,20.1868912 20.1014333,23.9033527 15.5,23.9033527 Z" id="duplii-face" fill="currentColor"></path>
    </g>
</svg>

<svg viewBox="0 0 31 31" xmlns="http://www.w3.org/2000/svg"><path d="M30.905 3.551c0 1.955-1.603 3.545-3.576 3.545-1.977 0-3.577-1.59-3.577-3.545 0-1.961 1.601-3.551 3.577-3.551 1.974 0 3.576 1.59 3.576 3.551zm-23.751 0c0 1.955-1.602 3.545-3.576 3.545-1.977 0-3.577-1.59-3.577-3.545 0-1.961 1.601-3.551 3.577-3.551 1.975 0 3.576 1.59 3.576 3.551zm8.346 20.352c-4.604 0-8.346-3.716-8.346-8.281h-7.154c0 8.479 6.952 15.377 15.5 15.377 8.547 0 15.5-6.899 15.5-15.377h-7.154c0 4.564-3.745 8.281-8.346 8.281z" fill="#FF5F19"/></svg>
